; generated by QIDISlicer 1.2.5 on 2026-02-11 at 00:11:58 UTC


;
;

;
;
; 

; external perimeters extrusion width = 0.42mm
; perimeters extrusion width = 0.45mm
; infill extrusion width = 0.45mm
; solid infill extrusion width = 0.42mm
; top infill extrusion width = 0.42mm
; support material extrusion width = 0.42mm
; first layer extrusion width = 0.50mm

;TYPE:Custom
EXCLUDE_OBJECT_DEFINE NAME=ClampBumper_stl CENTER=122.500,122.500 POLYGON=[[144.750,128.200],[100.250,128.200],[100.250,116.800],[144.750,116.800]]
M73 P0 R44
PRINT_START BED=50 HOTEND=260 CHAMBER=40
M83
M140 S50
M104 S260
M141 S40
G4 P3000
T0



G0 X97.0069 Y108.821 Z5 F6000
G0 Z0.2 F600
G1 E3 F1800
G1 X182.007 E3.4 F3000
G1 Y110.821 E0.08
G1 X97.0069 E3.4
G1 Y193.821 E3.32
G1 X99.0069 E0.08
G1 Y111.821 E3.28
G1 X100.007 Z0
G1 X103.007
G1 Z1 F600
G21 ; set units to millimeters
G90 ; use absolute coordinates
M83 ; use relative distances for extrusion
; Filament gcode
M900 K0.025 T0.03
M107
M106 P2 S0
M106 P3 S255
;LAYER_CHANGE
;Z:0.2
;HEIGHT:0.2
G1 E-.8 F1800
G1 X97.007 Y108.821 Z0 F30000
G1 X103.878 Y112.144 Z.4 F11464.393
G1 X142.765 Y130.95 Z.4 F30000
EXCLUDE_OBJECT_START NAME='ClampBumper_stl'
G1 X142.765 Y130.95
G1 Z.2 F600
G1 E.8 F1800
M204 S500
;TYPE:Support material
;WIDTH:0.5
G1 F3000
G1 X136.538 Y130.95 E.23667
G1 X136.538 Y128.629 E.08821
G1 X136.719 Y128.449 E.0097
G1 X136.719 Y116.551 E.4522
G1 X136.538 Y116.371 E.0097
G1 X136.538 Y114.05 E.08821
G1 X142.765 Y114.05 E.23667
G1 X142.765 Y130.881 E.63968
M204 S10000
;WIPE_START
G1 F24000
G1 X142.765 Y128.881 E-.76
;WIPE_END
G1 E-.04 F1800
G1 X139.658 Y121.91 Z.6 F11464.392
G1 X137.268 Y116.55 F30000
G1 Z.2 F600
G1 E.8 F1800
M204 S500
G1 F3000
G1 X139.538 Y116.55 E.08627
G1 X139.538 Y128.45 E.45228
G1 X137.268 Y128.45 E.08627
G1 X137.268 Y116.618 E.44969
M204 S10000
;WIPE_START
G1 F24000
G1 X137.268 Y118.618 E-.76
;WIPE_END
G1 E-.04 F1800
G1 X140.197 Y125.666 Z.6 F11464.394
G1 X142.307 Y130.744 F30000
G1 Z.2 F600
G1 E.8 F1800
M204 S500
G1 F3000
G1 X142.307 Y114.461 E.61886
G1 X141.799 Y114.461 E.01931
G1 X141.799 Y130.539 E.61107
G1 X141.291 Y130.539 E.01931
G1 X141.291 Y114.461 E.61107
G1 X140.783 Y114.461 E.01931
G1 X140.783 Y130.539 E.61107
G1 X140.275 Y130.539 E.01931
G1 X140.275 Y114.461 E.61107
G1 X139.767 Y114.461 E.01931
G1 X139.767 Y130.539 E.61107
G1 X139.26 Y130.539 E.01927
G1 X139.26 Y128.862 E.06374
G1 X138.752 Y128.862 E.01931
G1 X138.752 Y130.539 E.06374
G1 X138.244 Y130.539 E.01931
G1 X138.244 Y128.862 E.06374
G1 X137.736 Y128.862 E.01931
G1 X137.736 Y130.539 E.06374
G1 X137.228 Y130.539 E.01931
G1 X137.228 Y128.656 E.07157
M204 S10000
;WIPE_START
G1 F24000
G1 X137.228 Y130.539 E-.71554
G1 X137.345 Y130.539 E-.04446
;WIPE_END
G1 E-.04 F1800
G1 X138.365 Y122.975 Z.6 F11464.394
G1 X139.26 Y116.344 F30000
G1 Z.2 F600
G1 E.8 F1800
M204 S500
G1 F3000
G1 X139.26 Y114.461 E.07157
G1 X138.752 Y114.461 E.01931
G1 X138.752 Y116.138 E.06374
G1 X138.244 Y116.138 E.01931
G1 X138.244 Y114.461 E.06374
G1 X137.736 Y114.461 E.01931
G1 X137.736 Y116.138 E.06374
G1 X137.228 Y116.138 E.01931
G1 X137.228 Y114.256 E.07153
M204 S10000
;WIPE_START
G1 F24000
G1 X137.228 Y116.138 E-.71516
G1 X137.346 Y116.138 E-.04484
;WIPE_END
G1 E-.04 F1800
G1 X139.099 Y117.825 Z.328 F11464.425
G1 Z.2 F600
G1 E.8 F1800
M204 S500
;TYPE:Support material interface
;WIDTH:0.42
G1 F3000
G1 X139.099 Y116.988 E.02624
G1 X138.075 Y116.988 E.03211
G1 X139.099 Y118.013 E.04543
G1 X139.099 Y119.253 E.03888
G1 X137.707 Y117.861 E.06172
G1 X137.707 Y119.101 E.03888
G1 X139.099 Y120.494 E.06175
G1 X139.099 Y121.734 E.03888
G1 X137.707 Y120.342 E.06172
G1 X137.707 Y121.582 E.03888
G1 X139.099 Y122.975 E.06175
G1 X139.099 Y124.215 E.03888
G1 X137.707 Y122.822 E.06175
G1 X137.707 Y124.063 E.03891
G1 X139.099 Y125.455 E.06172
G1 X139.099 Y126.696 E.03891
G1 X137.707 Y125.303 E.06175
G1 X137.707 Y126.544 E.03891
G1 X139.099 Y127.936 E.06172
G1 X139.099 Y128.012 E.00238
G1 X137.935 Y128.012 E.0365
G1 X137.707 Y127.784 E.01011
M204 S10000
;WIPE_START
G1 F24000
G1 X137.935 Y128.012 E-.12253
G1 X139.099 Y128.012 E-.37101
G1 X139.099 Y127.936 E-.01013
G1 X138.79 Y127.627 E-.25634
;WIPE_END
G1 E-.03999 F1800
G1 X131.158 Y127.718 Z.6 F11464.396
G1 X106.737 Y128.012 F30000
G1 Z.2 F600
G1 E.8 F1800
M204 S500
G1 F3000
G1 X105.901 Y128.012 E.02621
G1 X105.901 Y126.987 E.03214
G1 X106.925 Y128.012 E.04543
G1 X107.293 Y128.012 E.01154
G1 X107.293 Y127.139 E.02737
G1 X105.901 Y125.747 E.06172
G1 X105.901 Y124.506 E.03891
G1 X107.293 Y125.899 E.06175
G1 X107.293 Y124.658 E.03891
G1 X105.901 Y123.266 E.06172
G1 X105.901 Y122.025 E.03891
G1 X107.293 Y123.418 E.06175
G1 X107.293 Y122.178 E.03888
G1 X105.901 Y120.785 E.06175
G1 X105.901 Y119.545 E.03888
G1 X107.293 Y120.937 E.06172
G1 X107.293 Y119.697 E.03888
G1 X105.901 Y118.304 E.06175
G1 X105.901 Y117.064 E.03888
G1 X107.293 Y118.456 E.06172
G1 X107.293 Y117.216 E.03888
G1 X107.065 Y116.988 E.01011
M204 S10000
;WIPE_START
G1 F24000
G1 X107.293 Y117.216 E-.12253
G1 X107.293 Y118.456 E-.39523
G1 X106.984 Y118.147 E-.24224
;WIPE_END
G1 E-.04 F1800
G1 X108.462 Y116.371 Z.321 F11464.483
G1 Z.2 F600
G1 E.8 F1800
M204 S500
;TYPE:Support material
;WIDTH:0.5
G1 F3000
G1 X108.281 Y116.551 E.0097
G1 X108.281 Y128.449 E.4522
G1 X108.462 Y128.629 E.0097
G1 X108.462 Y130.95 E.08821
G1 X102.236 Y130.95 E.23663
G1 X102.236 Y114.05 E.64231
G1 X108.462 Y114.05 E.23663
G1 X108.462 Y116.302 E.08559
M204 S10000
G1 X107.131 Y116.55 F30000
M204 S500
G1 F3000
G1 X107.732 Y116.55 E.02284
G1 X107.732 Y128.45 E.45228
G1 X105.462 Y128.45 E.08627
G1 X105.462 Y116.55 E.45228
G1 X107.063 Y116.55 E.06085
M204 S10000
;WIPE_START
G1 F24000
G1 X105.462 Y116.55 E-.60838
G1 X105.462 Y116.949 E-.15162
;WIPE_END
G1 E-.04 F1800
G1 X106.722 Y124.477 Z.6 F11464.393
G1 X107.772 Y130.744 F30000
G1 Z.2 F600
G1 E.8 F1800
M204 S500
G1 F3000
G1 X107.772 Y128.862 E.07153
G1 X107.264 Y128.862 E.01931
G1 X107.264 Y130.539 E.06374
G1 X106.756 Y130.539 E.01931
G1 X106.756 Y128.862 E.06374
G1 X106.248 Y128.862 E.01931
G1 X106.248 Y130.539 E.06374
G1 X105.74 Y130.539 E.01931
G1 X105.74 Y128.656 E.07157
M204 S10000
;WIPE_START
G1 F24000
G1 X105.74 Y130.539 E-.71554
G1 X105.857 Y130.539 E-.04446
;WIPE_END
G1 E-.04 F1800
G1 X106.877 Y122.975 Z.6 F11464.394
G1 X107.772 Y116.344 F30000
G1 Z.2 F600
G1 E.8 F1800
M204 S500
G1 F3000
G1 X107.772 Y114.461 E.07157
G1 X107.264 Y114.461 E.01931
G1 X107.264 Y116.138 E.06374
G1 X106.756 Y116.138 E.01931
G1 X106.756 Y114.461 E.06374
G1 X106.248 Y114.461 E.01931
G1 X106.248 Y116.138 E.06374
G1 X105.74 Y116.138 E.01931
G1 X105.74 Y114.461 E.06374
G1 X105.233 Y114.461 E.01927
G1 X105.233 Y130.539 E.61107
G1 X104.725 Y130.539 E.01931
G1 X104.725 Y114.461 E.61107
G1 X104.217 Y114.461 E.01931
G1 X104.217 Y130.539 E.61107
G1 X103.709 Y130.539 E.01931
G1 X103.709 Y114.461 E.61107
G1 X103.201 Y114.461 E.01931
G1 X103.201 Y130.539 E.61107
G1 X102.693 Y130.539 E.01931
G1 X102.693 Y114.256 E.61886
M204 S10000
;WIPE_START
G1 F24000
G1 X102.693 Y116.256 E-.76
;WIPE_END
G1 E-.04 F1800
G1 X106.476 Y122.885 Z.6 F11464.393
G1 X109.281 Y127.8 F30000
G1 Z.2 F600
G1 E.8 F1800
M73 P1 R44
M204 S500
;TYPE:External perimeter
G1 F3000
G1 X109.281 Y117.2 E.40287
G1 X135.719 Y117.2 E1.00481
G1 X135.719 Y127.8 E.40287
G1 X109.341 Y127.8 E1.00253
M204 S10000
G1 X109.738 Y127.343 F30000
M204 S500
;TYPE:Perimeter
G1 F3000
G1 X109.738 Y117.657 E.36813
G1 X135.262 Y117.657 E.97007
G1 X135.262 Y127.343 E.36813
G1 X109.798 Y127.343 E.96779
M204 S10000
G1 X110.195 Y126.886 F30000
M204 S500
G1 F3000
G1 X110.195 Y118.114 E.33339
G1 X134.805 Y118.114 E.93534
G1 X134.805 Y126.886 E.33339
G1 X110.255 Y126.886 E.93306
M204 S10000
G1 X110.652 Y126.429 F30000
M204 S500
G1 F3000
G1 X110.652 Y118.571 E.29865
G1 X134.348 Y118.571 E.9006
G1 X134.348 Y126.429 E.29865
G1 X110.712 Y126.429 E.89832
M204 S10000
G1 X111.109 Y125.972 F30000
M204 S500
G1 F3000
G1 X111.109 Y119.028 E.26392
G1 X133.891 Y119.028 E.86586
G1 X133.891 Y125.972 E.26392
G1 X111.169 Y125.972 E.86358
M204 S10000
;WIPE_START
G1 F24000
G1 X111.109 Y125.972 E-.0228
G1 X111.109 Y124.032 E-.7372
;WIPE_END
G1 E-.04 F1800
G1 X118.724 Y123.512 Z.6 F11464.396
G1 X133.536 Y122.5 F30000
G1 Z.2 F600
G1 E.8 F1800
M204 S500
;TYPE:Solid infill
;WIDTH:0.499999
G1 F5250.733
G1 X133.536 Y125.617 E.11847
G1 X111.464 Y125.617 E.83887
G1 X111.464 Y119.383 E.23693
G1 X133.536 Y119.383 E.83887
G1 X133.536 Y122.44 E.11619
M204 S10000
G1 X133.079 Y122.5 F30000
M204 S500
G1 F5250.733
G1 X133.079 Y125.16 E.1011
G1 X111.921 Y125.16 E.80414
G1 X111.921 Y119.84 E.20219
G1 X133.079 Y119.84 E.80414
G1 X133.079 Y122.44 E.09882
M204 S10000
G1 X132.622 Y122.5 F30000
M204 S500
G1 F5250.733
G1 X132.622 Y124.703 E.08373
G1 X112.378 Y124.703 E.7694
G1 X112.378 Y120.297 E.16746
G1 X132.622 Y120.297 E.7694
G1 X132.622 Y122.44 E.08145
M204 S10000
G1 X132.165 Y122.5 F30000
M204 S500
G1 F5250.733
G1 X132.165 Y124.246 E.06636
G1 X112.835 Y124.246 E.73466
G1 X112.835 Y120.754 E.13272
G1 X132.165 Y120.754 E.73466
G1 X132.165 Y122.44 E.06408
M204 S10000
G1 X131.708 Y122.5 F30000
M204 S500
G1 F5250.733
G1 X131.708 Y123.789 E.04899
G1 X113.292 Y123.789 E.69992
G1 X113.292 Y121.211 E.09798
G1 X131.708 Y121.211 E.69992
G1 X131.708 Y122.44 E.04671
M204 S10000
G1 X131.251 Y122.5 F30000
M204 S500
G1 F5250.733
G1 X131.251 Y123.332 E.03162
G1 X113.749 Y123.332 E.66519
G1 X113.749 Y121.668 E.06324
G1 X131.251 Y121.668 E.66519
G1 X131.251 Y122.44 E.02934
M204 S10000
G1 X130.721 Y122.5 F30000
M204 S500
;WIDTH:0.64643
G1 F3976.736
G1 X130.721 Y122.802 E.01515
G1 X114.279 Y122.802 E.82509
G1 X114.279 Y122.198 E.03031
M73 P1 R43
G1 X130.721 Y122.198 E.82509
G1 X130.721 Y122.44 E.01214
M204 S10000
;LAYER_CHANGE
;Z:0.4
;HEIGHT:0.2
TIMELAPSE_TAKE_FRAME
;WIPE_START
G1 F24000
G1 X130.721 Y122.198 E-.09196
G1 X128.963 Y122.198 E-.66804
;WIPE_END
G1 E-.04 F1800
G1 X128.963 Y122.198 Z.2 F30000
G1 X135.735 Y118.678 Z.6 F11464.394
G1 X138.986 Y116.988 Z.6 F30000
G92 E0
M141 S40 ; set chamber temperature
G1 Z.4 F600
G1 E.8 F1800
;TYPE:Support material interface
;WIDTH:0.42
G1 F4800
G1 X138.407 Y116.988 E.01815
G1 X138.407 Y117.756 E.02408
G1 X139.175 Y116.988 E.03405
G1 X139.566 Y116.988 E.01226
G1 X139.566 Y117.837 E.02662
G1 X138.407 Y118.996 E.05139
G1 X138.407 Y120.237 E.03891
G1 X139.566 Y119.078 E.05139
G1 X139.566 Y120.318 E.03888
G1 X138.407 Y121.477 E.05139
G1 X138.407 Y122.718 E.03891
G1 X139.566 Y121.558 E.05141
G1 X139.566 Y122.799 E.03891
G1 X138.407 Y123.958 E.05139
G1 X138.407 Y125.198 E.03888
G1 X139.566 Y124.039 E.05139
G1 X139.566 Y125.28 E.03891
G1 X138.407 Y126.439 E.05139
G1 X138.407 Y127.679 E.03888
G1 X139.566 Y126.52 E.05139
G1 X139.566 Y127.76 E.03888
G1 X139.315 Y128.012 E.01115
;WIPE_START
G1 F24000
G1 X139.566 Y127.76 E-.13516
G1 X139.566 Y126.52 E-.3874
G1 X139.28 Y126.806 E-.23744
;WIPE_END
G1 E-.04 F1800
G1 X131.649 Y126.952 Z.8 F11464.394
G1 X106.593 Y127.432 F30000
G1 Z.4 F600
G1 E.8 F1800
G1 F4800
G1 X106.593 Y128.012 E.01819
G1 X105.825 Y128.012 E.02408
G1 X106.593 Y127.244 E.03405
G1 X106.593 Y126.004 E.03888
G1 X105.434 Y127.163 E.05139
G1 X105.434 Y125.922 E.03891
G1 X106.593 Y124.763 E.05139
G1 X106.593 Y123.523 E.03888
G1 X105.434 Y124.682 E.05139
G1 X105.434 Y123.442 E.03888
G1 X106.593 Y122.282 E.05141
G1 X106.593 Y121.042 E.03888
G1 X105.434 Y122.201 E.05139
G1 X105.434 Y120.961 E.03888
G1 X106.593 Y119.802 E.05139
G1 X106.593 Y118.561 E.03891
G1 X105.434 Y119.72 E.05139
G1 X105.434 Y118.48 E.03888
G1 X106.593 Y117.321 E.05139
G1 X106.593 Y116.988 E.01044
G1 X105.685 Y116.988 E.02847
G1 X105.434 Y117.24 E.01115
;WIPE_START
G1 F24000
G1 X105.685 Y116.988 E-.13516
G1 X106.593 Y116.988 E-.28368
G1 X106.593 Y117.321 E-.0568
G1 X106.308 Y117.606 E-.28436
;WIPE_END
G1 E-.04 F1800
G1 X109.072 Y124.72 Z.8 F11464.394
G1 X109.655 Y126.219 F30000
G1 Z.4 F600
G1 E.8 F1800
M204 S5000
;TYPE:Perimeter
;WIDTH:0.45
G1 F5895.652
G1 X109.655 Y118.623 E.25712
G1 X135.345 Y118.623 E.86958
G1 X135.345 Y126.377 E.26246
G1 X109.655 Y126.377 E.86958
G1 X109.655 Y126.279 E.00332
M204 S10000
G1 X109.248 Y126.737 F30000
M204 S5000
G1 F5895.652
G1 X109.248 Y126.251 E.01645
G1 X109.248 Y118.749 E.25393
G1 X109.248 Y118.216 E.01804
G1 X109.781 Y118.216 E.01804
G1 X135.219 Y118.216 E.86105
G1 X135.752 Y118.216 E.01804
G1 X135.752 Y118.749 E.01804
G1 X135.752 Y126.251 E.25393
G1 X135.752 Y126.784 E.01804
G1 X135.219 Y126.784 E.01804
G1 X109.781 Y126.784 E.86105
G1 X109.261 Y126.784 E.0176
M204 S10000
G1 X108.881 Y127.191 F30000
M204 S5000
G1 F2570.123
G1 X108.841 Y127.191 E.00135
G1 X108.841 Y126.251 E.03182
G1 X108.841 Y118.749 E.25393
G1 X108.841 Y117.809 E.03182
G1 X109.781 Y117.809 E.03182
G1 F5895.652
G1 X135.219 Y117.809 E.86105
G1 F2570.112
G1 X136.159 Y117.809 E.03182
G1 X136.159 Y118.749 E.03182
G1 X136.159 Y126.251 E.25393
G1 X136.159 Y127.191 E.03182
G1 X135.219 Y127.191 E.03182
G1 F5895.652
G1 X109.781 Y127.191 E.86105
G1 F2570.123
G1 X108.941 Y127.191 E.02843
M204 S10000
G1 X108.881 Y127.598 F30000
M204 S5000
G1 F866.667
G1 X108.681 Y127.598 E.00677
M204 S2000
;TYPE:Overhang perimeter
G1 F600
G1 X108.434 Y127.598 E.00836
G1 X108.434 Y126.251 E.04559
G1 X108.434 Y118.749 E.25393
G1 X108.434 Y117.402 E.04559
G1 X108.681 Y117.402 E.00836
M204 S5000
;TYPE:Perimeter
G1 F866.667
G1 X109.781 Y117.402 E.03723
G1 F5895.652
G1 X135.219 Y117.402 E.86105
G1 F866.667
G1 X136.319 Y117.402 E.03723
M204 S2000
;TYPE:Overhang perimeter
G1 F600
G1 X136.566 Y117.402 E.00836
G1 X136.566 Y118.749 E.04559
G1 X136.566 Y126.251 E.25393
G1 X136.566 Y127.598 E.04559
G1 X136.319 Y127.598 E.00836
M204 S5000
;TYPE:Perimeter
G1 F866.667
G1 X135.219 Y127.598 E.03723
G1 F5895.652
G1 X109.781 Y127.598 E.86105
G1 F866.667
G1 X108.941 Y127.598 E.02843
M204 S10000
G1 X108.881 Y127.99 F30000
M204 S3000
;TYPE:External perimeter
;WIDTH:0.42
G1 F714.286
G1 X108.681 Y127.99 E.00627
M204 S2000
;TYPE:Overhang perimeter
;WIDTH:0.45
G1 F600
G1 X108.042 Y127.99 E.02163
G1 X108.042 Y126.251 E.05886
G1 X108.042 Y118.749 E.25393
G1 X108.042 Y117.01 E.05886
G1 X108.681 Y117.01 E.02163
M204 S3000
;TYPE:External perimeter
;WIDTH:0.42
G1 F714.286
G1 X109.721 Y117.01 E.03261
G1 F4200
G1 X135.279 Y117.01 E.80135
G1 F714.286
G1 X136.319 Y117.01 E.03261
M204 S2000
;TYPE:Overhang perimeter
;WIDTH:0.45
G1 F600
G1 X136.958 Y117.01 E.02163
G1 X136.958 Y118.749 E.05886
G1 X136.958 Y126.251 E.25393
G1 X136.958 Y127.99 E.05886
G1 X136.319 Y127.99 E.02163
M204 S3000
;TYPE:External perimeter
;WIDTH:0.42
G1 F714.286
G1 X135.279 Y127.99 E.03261
G1 F4200
G1 X109.721 Y127.99 E.80135
G1 F714.286
G1 X108.941 Y127.99 E.02446
M204 S10000
;WIPE_START
G1 F24000
G1 X108.881 Y127.99 E-.0228
G1 X108.681 Y127.99 E-.07372
;WIPE_END
G1 E-.70348 F1800
G1 X110.206 Y120.511 Z.8 F11464.393
G1 X110.563 Y118.759 F30000
G1 Z.4 F600
G1 E.8 F1800
;TYPE:Solid infill
;WIDTH:0.425197
G1 F6278.169
G1 X109.96 Y119.362 E.02711
G1 X109.96 Y119.903 E.0172
G1 X110.934 Y118.928 E.04381
G1 X111.475 Y118.928 E.0172
G1 X109.96 Y120.443 E.0681
G1 X109.96 Y120.984 E.0172
G1 X112.015 Y118.928 E.0924
G1 X112.556 Y118.928 E.0172
M73 P2 R43
G1 X109.96 Y121.525 E.11672
G1 X109.96 Y122.065 E.01716
G1 X113.097 Y118.928 E.14102
G1 X113.637 Y118.928 E.01716
G1 X109.96 Y122.606 E.16531
G1 X109.96 Y123.146 E.01716
G1 X114.178 Y118.928 E.18961
G1 X114.719 Y118.928 E.0172
G1 X109.96 Y123.687 E.21393
G1 X109.96 Y124.228 E.0172
G1 X115.259 Y118.928 E.23823
G1 X115.8 Y118.928 E.0172
G1 X109.96 Y124.768 E.26252
G1 X109.96 Y125.309 E.0172
G1 X116.34 Y118.928 E.28682
G1 X116.881 Y118.928 E.0172
G1 X109.96 Y125.85 E.31114
G1 X109.96 Y126.072 E.00706
G1 X110.278 Y126.072 E.01011
G1 X117.422 Y118.928 E.32114
G1 X117.962 Y118.928 E.01716
G1 X110.819 Y126.072 E.32112
G1 X111.36 Y126.072 E.0172
G1 X118.503 Y118.928 E.32112
G1 X119.044 Y118.928 E.0172
G1 X111.9 Y126.072 E.32114
G1 X112.441 Y126.072 E.0172
G1 X119.584 Y118.928 E.32112
G1 X120.125 Y118.928 E.0172
G1 X112.981 Y126.072 E.32114
G1 X113.522 Y126.072 E.0172
G1 X120.665 Y118.928 E.32112
G1 X121.206 Y118.928 E.0172
G1 X114.063 Y126.072 E.32112
G1 X114.603 Y126.072 E.01716
G1 X121.747 Y118.928 E.32114
